public/avatar/hat/185.svg

<svg xmlns:xlink="http://www.w3.org/1999/xlink" height="92.9" width="100.7" xmlns="http://www.w3.org/2000/svg"><use height="41.35" transform="translate(11.4 27.8)" width="54.05" xlink:href="#a"/><defs><g id="a" fill-rule="evenodd"><path d="M14.6 4.6q.4 2.95-1.5 3.05Q12.55 19 7.25 19.4q1.15-1.2 1.9-3.3 1.5-4.2-.5-8.65l-4-.5q-1.55.2-2.1 1.95-.75 2.65-1.05 5.15l1.8 2.15-3.5 2.85-3.5-2.85 1.8-2.15q-.1-2.6-.85-5.25-.55-1.75-2.2-1.95l-4.1.5q-2 4.45-.45 8.7.75 2.15 1.9 3.35-5.5-.4-5.8-11.65-1.9-.15-1.6-3.1.3-3.1 3.9-3.6 10.8-1.5 21.7 0 3.6.5 4 3.55" fill="#070a0b" transform="translate(27.25 21.95)"/><path d="M10.45 1.85q3.3.45 3.3 3.05V5q-.1 1.8-1.1 1.9h-.55l-.05 1.25q-.1 8.45-3.45 10.05 1.7-2.75 1.7-5.95 0-2.65-1.15-5.2L9 6.75l-.45-.1L4.3 6.2q-1.9.25-2.55 2.35Q1 11.2.9 13.9v.25l1.5 1.8-2.6 2.1-2.6-2.1 1.55-1.8-.05-.25q-.05-2.7-.85-5.35-.65-2.1-2.5-2.35l-4.25.45-.45.1-.15.3q-1.15 2.5-1.15 5.15 0 3.15 1.65 6-3.4-1.65-3.4-10.05l-.05-1.25H-13q-1-.1-1.1-1.9v-.1q0-2.6 3.25-3.05l10.7-.55 10.6.55" fill="#4c4b4d" transform="translate(27.25 21.95)"/><path d="M3.45 6.45q-.95.4-1.5 1.55l-.4 1.05-1.65 2.5-.65-5.15 4.2.05m7.25.45 1.45.25q-.1 5.7-.95 7.7.35-2.45-.05-5.45l-.45-2.5" fill="#29272a" transform="translate(27.25 21.95)"/><path d="M12.3 7.7q-3.6-1-13.05-1l-9.45.45-2.3.45-.25-.6 2.5-.5L-.6 6q9.55 0 12.9 1v.7" fill="#070a0b" transform="translate(27.25 21.95)"/><path d="M6.5 2.25q-6.05-.15-8.55.2-4.6.6-1.25 2.95-4.45-.2-9.55.85-1.05-.95-.4-2.35.65-1.35 1.95-1.55l9.4-.5 8.4.4" fill="#767779" transform="translate(27.25 21.95)"/><path d="M-12.85 6.25q-.65-.55-.6-1.4 0-2.2 2.75-2.5l6.65-.45-4.65.9q-4.6 1.35-4.15 3.45" fill="#aeaeb1" transform="translate(27.25 21.95)"/><path d="M9.1 5.8q3.7-.2 3.85-1.85.3.45.1 1.35-.15.95-.65.85L9.1 5.8" fill="#767779" transform="translate(27.25 21.95)"/><path d="m-26.85-5.05 3.05-2.7q4.05-2.8 9.2-3.2h.2l.05.1Q-12-7.6-5.2-6.5h.15l.05.15 1.1 2.8q.95 2.95.6 4.6l-.1.6-.35-.45Q-5.5-.9-6.65-1.35-10.55-.2-10.8 2.5l-.55.05-1.1-2.85q-2.55 1.45-3.2 4.5l-.15.8-.35-.75q-1.2-2.4-1.2-5.65v-.5Q-20-1-22.4 1.75l-.4.45-.1-.55-.1-1.2q0-2.6 1.7-4.6l-5.3-.45-.65.1.4-.55" fill="#070a0b" transform="translate(27.25 21.95)"/><path d="M-20.35-4.9q-1.75-.75-4.5-.7 3.8-3.65 10-4.25 2.45 3 9.2 4.35 1.35 2.75 1.6 4.9L-6.3-2.35l-.2-.1-.2.1q-3 .9-4.25 2.95l-.8-1.85-.3-.35-.4.2-1.3.95q-1.3 1.15-2 2.7Q-16.3.4-16.3-1.6l.1-1.45-.7.1q-2.3.4-4.95 2.95.1-1.4.9-2.85l.8-1.15.5-.55-.7-.35" fill="#c20000" transform="translate(27.25 21.95)"/><path d="m16.9-1.9.05.5q0 3.15-1.2 5.65l-.4.75-.15-.8q-.6-2.95-3.15-4.5l-1.1 2.85-.55-.05q-.35-2.8-4.2-3.85-1.25.6-2.85 2.55l-.4.45-.1-.6-1.3-3.35Q-.35-6.65.05-7.55.4-8.1 5-6.45l3.75-1q3.75-1.3 5.15-3.3l.1-.15h.15q8.2.65 12.25 5.85l.4.55-.65-.1q-3.05-.35-5.25.45 1.7 2.2 1.7 4.6l-.15 1.2-.1.55-.4-.45Q19.5-1.1 16.9-1.9" fill="#070a0b" transform="translate(27.25 21.95)"/><path d="M4.75-5.45h.15l3.85-1q4-1.35 5.65-3.4 6.2.6 10 4.25l-4.5.7-.7.35.5.55.8 1.15q.8 1.45.85 2.85-1.65-1.6-3.4-2.45l-1.5-.5-.7-.1.1 1.45q0 2-.55 3.85-.7-1.55-2-2.7l-1.25-.95-.45-.2-.25.35L10.5.6Q9.7-.7 7.95-1.65l-1.7-.7-.2-.1-.2.1Q4.75-1.8 3.3-.3l-1-2.5Q.95-5.9.85-6.85L4.6-5.5l.15.05" fill="#c20000" transform="translate(27.25 21.95)"/><path d="m5.35-15.25 1.1 1.3q.85.75.85 3.9v.8L6.25-9.3q-.7 1.45-1.4 1.95-.7.55-3.3.05 2.2 4.05 2.2 6.9L3.5 1.35Q2.55 4-.65 3.9q-3-.1-3.6-2.1l-.6-2.55q-.7-3.1-1.45-5.3l-.25-3.05q0-2.4.65-3.85 1.15-2.6 2.85-3.7l-2.7-3.45 4.65 1.25.15-3.1 2.4 3.9 2.2 1.1 1.7 1.7" fill="#070a0b" transform="translate(27.25 21.95)"/><path d="m.75-17.35.05.15L3.3-16l1.3 1.4 1.2 1.4q.55.45.55 3.1l-.7-.05-.2.3Q4.8-8.4 4.25-8L1.1-8.25-.2-8.5l.7 1.1Q3.7-2.15 2.65.85 1.9 2.8-.6 2.8-3 2.7-3.4 1.3L-4-1.05q-.5-2.85-1.4-5.2l-.25-2.85q0-2.1.6-3.45 1-2.3 2.7-3.45l.55-.3-1.65-2.1 3.15.85.05-1.35 1 1.55" fill="#c20000" transform="translate(27.25 21.95)"/><path d="M.15-15.15 3-13.8l-1.55-.1-.9-.05v-.5l-.4-.7M4.2-11.8l.9 1.15-.85-.35-.05-.8" fill="#070a0b" transform="translate(27.25 21.95)"/><path d="m.5-15.85.1-.45q-.9-.15-1.35 1.15-.2.9.2 1.4l3.25.65q.5.05-.1.4l-1.3.4q-1.5-.9-1.85-.3-.65 1.2.85 2.5Q5-8.5 4.15-8.45l-4.2-.75q-2.8-2.2-3-1.7l.75 1.45.75.4q-2.45 0-2 .8.2.35 1.75.3l-.95.3q-.8.4-.65.75l3.2.15q-1.15.15-2.05.75-.95.6-.75 1.1l1.25.2 2.85.35q-1.55-.35-2.75.3-1.15.55-.8 1 .35.5 3.7.7-1 0-2 .55-.95.55-.7.85.35.4 3.25.95-2.45 0-3.2.65-.55.45.35.95L0 2q-2.2.2-2.8-.75l-2.05-7.7q-.85-2.05.1-5.35.4-1.45 2.85-3.7l.3-.75-1.65-2.05 3.4 1.25-.3-1.65.8 1.85 2.75 1.5 1.8 3.25q-1.25-1.65-2.1-1.95-1.2-1-2.15-1.25-.55-.15-.45-.55m-22.8 8.4q3.4-2 7.45-2.4 2.95 3.3 9.2 4.45l.4 1.4q-2.6-1.4-3.7-1-.7.3-1.3 2.7l-.35 1.65q.7-4.4.2-4.85-.65-.55-2.4 1.45-2.05 2.35-2.9 6.1L-14-4.5q.6-2.05.3-2.25-.55-.3-3.15 1.65-3 2.25-5 5.1 1.25-2.45 4.15-5.6 2.2-2.45 1.9-2.65l-3.45.25q-3.2.8-5.65 2.45l2.6-1.9M10.1-5.5q-.35.3-.05 2.95l.15 1.15Q9.55-4.65 8.65-5l-2.25.35L4.95-4l.4-1.4 3.5-1q3.85-1.4 5.7-3.45 6.5.6 10.1 4.3Q22.2-7.2 18.95-8l-3.45-.25q-.25.2 1.95 2.65 2.85 3.1 4.1 5.6-2-2.85-4.95-5.1-2.6-1.95-3.2-1.65-.3.2.35 2.25l1.65 6.55q-.85-3.75-2.9-6.1-1.75-2-2.4-1.45" fill="red" transform="translate(27.25 21.95)"/><path d="M2.8-2.05Q3.3.3 2.2 1.7 1 3.2-1.35 2.7q5.1-1.4 2.85-6.85-1.1-2.65-2.1-4L-1.35-9l1.15.5 1.3 2.15q1.35 2.5 1.7 4.3m2.35-7.2L3.2-9.8.45-11.4l2 .45q.5 0 .85-.3l.85.95 1.5.2-.5.85" fill="#6d0000" transform="translate(27.25 21.95)"/><path d="M-6.9-2.1q1.3-.15 2.55 1.25L-3.3 1.9q-.05.95-1.55 3.35l-.25.4-1.2-2.1-1.15 2.25-.15.6-.4-.5-1-2.25q-.55.45-.8 1.6L-10 6l-.35-.7q-.45-.85-.55-2.65-.15-1.9.35-2.45Q-8.6-1.9-6.9-2.1" fill="#070a0b" transform="translate(27.25 21.95)"/><path d="M-6.85-1.25q.85-.1 1.8.85.9 1.35.9 2.2v.05q0 1.25-.85 2.3L-6.25 2-7.8 4.4-8.3 3l-.15-.65-.6.3-.95.9-.1-1.85.2-.95q1.7-1.85 3.05-2" fill="#c20000" transform="translate(27.25 21.95)"/><path d="m3.8-.9.8-.65q.9-.65 1.7-.55 1.65.2 3.6 2.3.5.55.4 2.45-.1 1.8-.6 2.65l-.35.7-.15-.75q-.35-1.2-.85-1.6-.35 1.4-1 2.25L7 6.4l-.15-.6L5.7 3.55l-1.2 2.1-.25-.4Q2.8 2.85 2.75 1.9l1-2.75.05-.05" fill="#070a0b" transform="translate(27.25 21.95)"/><path d="M6.25-1.25q1.35.15 3.05 2l.15.95-.1 1.85-.9-.9-.6-.3L7.2 4.4 5.65 2 4.4 4.15q-.65-.9-.85-2.3V1.8q0-.65.9-2.2 1.15-.95 1.8-.85" fill="#c20000" transform="translate(27.25 21.95)"/><path d="m-8.45 2.35.95-1.9-.3 3.95-.65-2.05" fill="red" transform="translate(27.25 21.95)"/><path d="M-8.4-.55q1.25-.75 1.65-.75.4-.05 1.15.5l-.85-.2q-1.5 0-3.1 1.85l-.4 2.55.05-2.65 1.5-1.3m3.2.85q.55 1.3.2 3.85l-.7-1.4Q-5.1.8-5.2.3m9.95-.6q-.9 1.1-.9 1.95l.55 2.5q-.9-1.7-.85-2.55Q3.6.45 4.6-.55q1.15-.95 1.9-.7Q8.4-.6 9.35.95 6.75-1 6.35-1q-.9 0-1.6.7" fill="red" transform="translate(27.25 21.95)"/><path d="M5.65 2 6.1-.2l1.2 2-.1 2.6L5.65 2m3.7 1.45Q9.1 1.5 8.5 1L7.6.2l1.55 1.1.2 2.15" fill="red" transform="translate(27.25 21.95)"/><path d="M-10.45 17.4q-1.95-2.15-2-8.15l.95.3-.2 2.5q.05 2.95 1.25 5.35m8.35-8.65 1.45 1q.25.45.4 5.05v3.55l-2.4-2.1 1.4-1.8q-.25-3.35-.85-5.7" fill="#767779" transform="translate(27.25 21.95)"/><path d="m-2.85 16.05 1.4-1.75q-.05-1.65-.65-5.55.7 1.65 1.45 5.9l-.95 2.6-1.25-1.2" fill="#aeaeb1" transform="translate(27.25 21.95)"/></g></defs></svg>

<?xml version="1.0" encoding="UTF-8" standalone="no"?>
<svg xmlns:xlink="http://www.w3.org/1999/xlink" height="92.9px" width="100.7px" xmlns="http://www.w3.org/2000/svg">
  <g transform="matrix(1.0, 0.0, 0.0, 1.0, 38.65, 49.75)">
    <use height="41.35" transform="matrix(1.0, 0.0, 0.0, 1.0, -27.25, -21.95)" width="54.05" xlink:href="#shape0"/>
  </g>
  <defs>
    <g id="shape0" transform="matrix(1.0, 0.0, 0.0, 1.0, 27.25, 21.95)">
      <path d="M14.6 4.6 Q15.0 7.55 13.1 7.65 12.55 19.0 7.25 19.4 8.4 18.2 9.15 16.1 10.65 11.9 8.65 7.45 L4.65 6.95 Q3.1 7.15 2.55 8.9 1.8 11.55 1.5 14.05 L3.3 16.2 -0.2 19.05 -3.7 16.2 -1.9 14.05 Q-2.0 11.45 -2.75 8.8 -3.3 7.05 -4.95 6.85 L-9.05 7.35 Q-11.05 11.8 -9.5 16.05 -8.75 18.2 -7.6 19.4 -13.1 19.0 -13.4 7.75 -15.3 7.6 -15.0 4.65 -14.7 1.55 -11.1 1.05 -0.3 -0.45 10.6 1.05 14.2 1.55 14.6 4.6" fill="#070a0b" fill-rule="evenodd" stroke="none"/>
      <path d="M10.45 1.85 Q13.75 2.3 13.75 4.9 L13.75 5.0 Q13.65 6.8 12.65 6.9 L12.1 6.9 12.05 8.15 Q11.95 16.6 8.6 18.2 10.3 15.45 10.3 12.25 10.3 9.6 9.15 7.05 L9.0 6.75 8.55 6.65 4.3 6.2 Q2.4 6.45 1.75 8.55 1.0 11.2 0.9 13.9 L0.9 14.15 2.4 15.95 -0.2 18.05 -2.8 15.95 -1.25 14.15 -1.3 13.9 Q-1.35 11.2 -2.15 8.55 -2.8 6.45 -4.65 6.2 L-8.9 6.65 -9.35 6.75 -9.5 7.05 Q-10.65 9.55 -10.65 12.2 -10.65 15.35 -9.0 18.2 -12.4 16.55 -12.4 8.15 L-12.45 6.9 -13.0 6.9 Q-14.0 6.8 -14.1 5.0 L-14.1 4.9 Q-14.1 2.3 -10.85 1.85 L-0.15 1.3 10.45 1.85" fill="#4c4b4d" fill-rule="evenodd" stroke="none"/>
      <path d="M3.45 6.45 Q2.5 6.85 1.95 8.0 L1.55 9.05 -0.1 11.55 -0.75 6.4 3.45 6.45" fill="#29272a" fill-rule="evenodd" stroke="none"/>
      <path d="M10.7 6.9 L12.15 7.15 Q12.05 12.85 11.2 14.85 11.55 12.4 11.15 9.4 L10.7 6.9" fill="#29272a" fill-rule="evenodd" stroke="none"/>
      <path d="M12.3 7.7 Q8.7 6.7 -0.75 6.7 L-10.2 7.15 -12.5 7.6 -12.75 7.0 -10.25 6.5 -0.6 6.0 Q8.95 6.0 12.3 7.0 L12.3 7.7" fill="#070a0b" fill-rule="evenodd" stroke="none"/>
      <path d="M6.5 2.25 Q0.45 2.1 -2.05 2.45 -6.65 3.05 -3.3 5.4 -7.75 5.2 -12.85 6.25 -13.9 5.3 -13.25 3.9 -12.6 2.55 -11.3 2.35 L-1.9 1.85 6.5 2.25" fill="#767779" fill-rule="evenodd" stroke="none"/>
      <path d="M-12.85 6.25 Q-13.5 5.7 -13.45 4.85 -13.45 2.65 -10.7 2.35 L-4.05 1.9 -8.7 2.8 Q-13.3 4.15 -12.85 6.25" fill="#aeaeb1" fill-rule="evenodd" stroke="none"/>
      <path d="M9.1 5.8 Q12.8 5.6 12.95 3.95 13.25 4.4 13.05 5.3 12.9 6.25 12.4 6.15 L9.1 5.8" fill="#767779" fill-rule="evenodd" stroke="none"/>
      <path d="M-26.85 -5.05 L-23.8 -7.75 Q-19.75 -10.55 -14.6 -10.95 L-14.4 -10.95 -14.35 -10.85 Q-12.0 -7.6 -5.2 -6.5 L-5.05 -6.5 -5.0 -6.35 -3.9 -3.55 Q-2.95 -0.6 -3.3 1.05 L-3.4 1.65 -3.75 1.2 Q-5.5 -0.9 -6.65 -1.35 -10.55 -0.2 -10.8 2.5 L-11.35 2.55 -12.45 -0.3 Q-15.0 1.15 -15.65 4.2 L-15.8 5.0 -16.15 4.25 Q-17.35 1.85 -17.35 -1.4 L-17.35 -1.9 Q-20.0 -1.0 -22.4 1.75 L-22.8 2.2 -22.9 1.65 -23.0 0.45 Q-23.0 -2.15 -21.3 -4.15 L-26.6 -4.6 -27.25 -4.5 -26.85 -5.05" fill="#070a0b" fill-rule="evenodd" stroke="none"/>
      <path d="M-20.35 -4.9 Q-22.1 -5.65 -24.85 -5.6 -21.05 -9.25 -14.85 -9.85 -12.4 -6.85 -5.65 -5.5 -4.3 -2.75 -4.05 -0.6 L-6.3 -2.35 -6.5 -2.45 -6.7 -2.35 Q-9.7 -1.45 -10.95 0.6 L-11.75 -1.25 -12.05 -1.6 -12.45 -1.4 -13.75 -0.45 Q-15.05 0.7 -15.75 2.25 -16.3 0.4 -16.3 -1.6 L-16.2 -3.05 -16.9 -2.95 Q-19.2 -2.55 -21.85 0.0 -21.75 -1.4 -20.95 -2.85 L-20.15 -4.0 -19.65 -4.55 -20.35 -4.9" fill="#c20000" fill-rule="evenodd" stroke="none"/>
      <path d="M16.9 -1.9 L16.95 -1.4 Q16.95 1.75 15.75 4.25 L15.35 5.0 15.2 4.2 Q14.6 1.25 12.05 -0.3 L10.95 2.55 10.4 2.5 Q10.05 -0.3 6.2 -1.35 4.95 -0.75 3.35 1.2 L2.95 1.65 2.85 1.05 1.55 -2.3 Q-0.35 -6.65 0.05 -7.55 0.4 -8.1 5.0 -6.45 L8.75 -7.45 Q12.5 -8.75 13.9 -10.75 L14.0 -10.9 14.15 -10.9 Q22.35 -10.25 26.4 -5.05 L26.8 -4.5 26.15 -4.6 Q23.1 -4.95 20.9 -4.15 22.6 -1.95 22.6 0.45 L22.45 1.65 22.35 2.2 21.95 1.75 Q19.5 -1.1 16.9 -1.9" fill="#070a0b" fill-rule="evenodd" stroke="none"/>
      <path d="M4.75 -5.45 L4.9 -5.45 8.75 -6.45 Q12.75 -7.8 14.4 -9.85 20.6 -9.25 24.4 -5.6 L19.9 -4.9 19.2 -4.55 19.7 -4.0 20.5 -2.85 Q21.3 -1.4 21.35 0.0 19.7 -1.6 17.95 -2.45 L16.45 -2.95 15.75 -3.05 15.85 -1.6 Q15.85 0.4 15.3 2.25 14.6 0.7 13.3 -0.45 L12.05 -1.4 11.6 -1.6 11.35 -1.25 10.5 0.6 Q9.7 -0.7 7.95 -1.65 L6.25 -2.35 6.05 -2.45 5.85 -2.35 Q4.75 -1.8 3.3 -0.3 L2.3 -2.8 Q0.95 -5.9 0.85 -6.85 L4.6 -5.5 4.75 -5.45" fill="#c20000" fill-rule="evenodd" stroke="none"/>
      <path d="M5.35 -15.25 L6.45 -13.95 Q7.3 -13.2 7.3 -10.05 L7.3 -9.25 6.25 -9.3 Q5.55 -7.85 4.85 -7.35 4.15 -6.8 1.55 -7.3 3.75 -3.25 3.75 -0.4 L3.5 1.35 Q2.55 4.0 -0.65 3.9 -3.65 3.8 -4.25 1.8 L-4.85 -0.75 Q-5.55 -3.85 -6.3 -6.05 L-6.55 -9.1 Q-6.55 -11.5 -5.9 -12.95 -4.75 -15.55 -3.05 -16.65 L-5.75 -20.1 -1.1 -18.85 -0.95 -21.95 1.45 -18.05 3.65 -16.95 5.35 -15.25" fill="#070a0b" fill-rule="evenodd" stroke="none"/>
      <path d="M0.75 -17.35 L0.8 -17.2 3.3 -16.0 4.6 -14.6 5.8 -13.2 Q6.35 -12.75 6.35 -10.1 L5.65 -10.15 5.45 -9.85 Q4.8 -8.4 4.25 -8.0 L1.1 -8.25 -0.2 -8.5 0.5 -7.4 Q3.7 -2.15 2.65 0.85 1.9 2.8 -0.6 2.8 -3.0 2.7 -3.4 1.3 L-4.0 -1.05 Q-4.5 -3.9 -5.4 -6.25 L-5.65 -9.1 Q-5.65 -11.2 -5.05 -12.55 -4.05 -14.85 -2.35 -16.0 L-1.8 -16.3 -3.45 -18.4 -0.3 -17.55 -0.25 -18.9 0.75 -17.35" fill="#c20000" fill-rule="evenodd" stroke="none"/>
      <path d="M0.15 -15.15 L3.0 -13.8 1.45 -13.9 0.55 -13.95 0.55 -14.45 0.15 -15.15" fill="#070a0b" fill-rule="evenodd" stroke="none"/>
      <path d="M4.2 -11.8 L5.1 -10.65 4.25 -11.0 4.2 -11.8" fill="#070a0b" fill-rule="evenodd" stroke="none"/>
      <path d="M0.5 -15.85 L0.6 -16.3 Q-0.3 -16.45 -0.75 -15.15 -0.95 -14.25 -0.55 -13.75 L2.7 -13.1 Q3.2 -13.05 2.6 -12.7 L1.3 -12.3 Q-0.2 -13.2 -0.55 -12.6 -1.2 -11.4 0.3 -10.1 5.0 -8.5 4.15 -8.45 L-0.05 -9.2 Q-2.85 -11.4 -3.05 -10.9 L-2.3 -9.45 -1.55 -9.05 Q-4.0 -9.05 -3.55 -8.25 -3.35 -7.9 -1.8 -7.95 L-2.75 -7.65 Q-3.55 -7.25 -3.4 -6.9 L-0.2 -6.75 Q-1.35 -6.6 -2.25 -6.0 -3.2 -5.4 -3.0 -4.9 L-1.75 -4.7 1.1 -4.35 Q-0.45 -4.7 -1.65 -4.05 -2.8 -3.5 -2.45 -3.05 -2.1 -2.55 1.25 -2.35 0.25 -2.35 -0.75 -1.8 -1.7 -1.25 -1.45 -0.95 -1.1 -0.55 1.8 0.0 -0.65 0.0 -1.4 0.65 -1.95 1.1 -1.05 1.6 L0.0 2.0 Q-2.2 2.2 -2.8 1.25 L-4.85 -6.45 Q-5.7 -8.5 -4.75 -11.8 -4.35 -13.25 -1.9 -15.5 L-1.6 -16.25 -3.25 -18.3 0.15 -17.05 -0.15 -18.7 0.65 -16.85 3.4 -15.35 5.2 -12.1 Q3.95 -13.75 3.1 -14.05 1.9 -15.05 0.95 -15.3 0.4 -15.45 0.5 -15.85" fill="#ff0000" fill-rule="evenodd" stroke="none"/>
      <path d="M-22.3 -7.45 Q-18.9 -9.45 -14.85 -9.85 -11.9 -6.55 -5.65 -5.4 L-5.25 -4.0 Q-7.85 -5.4 -8.95 -5.0 -9.65 -4.7 -10.25 -2.3 L-10.6 -0.65 Q-9.9 -5.05 -10.4 -5.5 -11.05 -6.05 -12.8 -4.05 -14.85 -1.7 -15.7 2.05 L-14.0 -4.5 Q-13.4 -6.55 -13.7 -6.75 -14.25 -7.05 -16.85 -5.1 -19.85 -2.85 -21.85 0.0 -20.6 -2.45 -17.7 -5.6 -15.5 -8.05 -15.8 -8.25 L-19.25 -8.0 Q-22.45 -7.2 -24.9 -5.55 L-22.3 -7.45" fill="#ff0000" fill-rule="evenodd" stroke="none"/>
      <path d="M10.1 -5.5 Q9.75 -5.2 10.05 -2.55 L10.2 -1.4 Q9.55 -4.65 8.65 -5.0 L6.4 -4.65 4.95 -4.0 5.35 -5.4 8.85 -6.4 Q12.7 -7.8 14.55 -9.85 21.05 -9.25 24.65 -5.55 22.2 -7.2 18.95 -8.0 L15.5 -8.25 Q15.25 -8.05 17.45 -5.6 20.3 -2.5 21.55 0.0 19.55 -2.85 16.6 -5.1 14.0 -7.05 13.4 -6.75 13.1 -6.55 13.75 -4.5 L15.4 2.05 Q14.55 -1.7 12.5 -4.05 10.75 -6.05 10.1 -5.5" fill="#ff0000" fill-rule="evenodd" stroke="none"/>
      <path d="M2.8 -2.05 Q3.3 0.3 2.2 1.7 1.0 3.2 -1.35 2.7 3.75 1.3 1.5 -4.15 0.4 -6.8 -0.6 -8.15 L-1.35 -9.0 -0.2 -8.5 1.1 -6.35 Q2.45 -3.85 2.8 -2.05" fill="#6d0000" fill-rule="evenodd" stroke="none"/>
      <path d="M5.15 -9.25 L3.2 -9.8 0.45 -11.4 2.45 -10.95 Q2.95 -10.95 3.3 -11.25 L4.15 -10.3 5.65 -10.1 5.15 -9.25" fill="#6d0000" fill-rule="evenodd" stroke="none"/>
      <path d="M-6.9 -2.1 Q-5.6 -2.25 -4.35 -0.85 L-3.3 1.9 Q-3.35 2.85 -4.85 5.25 L-5.1 5.65 -6.3 3.55 -7.45 5.8 -7.6 6.4 -8.0 5.9 -9.0 3.65 Q-9.55 4.1 -9.8 5.25 L-10.0 6.0 -10.35 5.3 Q-10.8 4.45 -10.9 2.65 -11.05 0.75 -10.55 0.2 -8.6 -1.9 -6.9 -2.1" fill="#070a0b" fill-rule="evenodd" stroke="none"/>
      <path d="M-6.85 -1.25 Q-6.0 -1.35 -5.05 -0.4 -4.15 0.95 -4.15 1.8 L-4.15 1.85 Q-4.15 3.1 -5.0 4.15 L-6.25 2.0 -7.8 4.4 -8.3 3.0 -8.45 2.35 -9.05 2.65 -10.0 3.55 -10.1 1.7 -9.9 0.75 Q-8.2 -1.1 -6.85 -1.25" fill="#c20000" fill-rule="evenodd" stroke="none"/>
      <path d="M3.8 -0.9 L4.6 -1.55 Q5.5 -2.2 6.3 -2.1 7.95 -1.9 9.9 0.2 10.4 0.75 10.3 2.65 10.2 4.45 9.7 5.3 L9.35 6.0 9.2 5.25 Q8.85 4.05 8.35 3.65 8.0 5.05 7.35 5.9 L7.0 6.4 6.85 5.8 5.7 3.55 4.5 5.65 4.25 5.25 Q2.8 2.85 2.75 1.9 L3.75 -0.85 3.8 -0.9" fill="#070a0b" fill-rule="evenodd" stroke="none"/>
      <path d="M6.25 -1.25 Q7.6 -1.1 9.3 0.75 L9.45 1.7 9.35 3.55 8.45 2.65 7.85 2.35 7.2 4.4 5.65 2.0 4.4 4.15 Q3.75 3.25 3.55 1.85 L3.55 1.8 Q3.55 1.15 4.45 -0.4 5.6 -1.35 6.25 -1.25" fill="#c20000" fill-rule="evenodd" stroke="none"/>
      <path d="M-8.45 2.35 L-7.5 0.45 -7.8 4.4 -8.45 2.35" fill="#ff0000" fill-rule="evenodd" stroke="none"/>
      <path d="M-8.4 -0.55 Q-7.15 -1.3 -6.75 -1.3 -6.35 -1.35 -5.6 -0.8 L-6.45 -1.0 Q-7.95 -1.0 -9.55 0.85 L-9.95 3.4 -9.9 0.75 -8.4 -0.55" fill="#ff0000" fill-rule="evenodd" stroke="none"/>
      <path d="M-5.2 0.3 Q-4.65 1.6 -5.0 4.15 L-5.7 2.75 Q-5.1 0.8 -5.2 0.3" fill="#ff0000" fill-rule="evenodd" stroke="none"/>
      <path d="M4.75 -0.3 Q3.85 0.8 3.85 1.65 L4.4 4.15 Q3.5 2.45 3.55 1.6 3.6 0.45 4.6 -0.55 5.75 -1.5 6.5 -1.25 8.4 -0.6 9.35 0.95 6.75 -1.0 6.35 -1.0 5.45 -1.0 4.75 -0.3" fill="#ff0000" fill-rule="evenodd" stroke="none"/>
      <path d="M5.65 2.0 L6.1 -0.2 7.3 1.8 7.2 4.4 5.65 2.0" fill="#ff0000" fill-rule="evenodd" stroke="none"/>
      <path d="M9.35 3.45 Q9.1 1.5 8.5 1.0 L7.6 0.2 9.15 1.3 9.35 3.45" fill="#ff0000" fill-rule="evenodd" stroke="none"/>
      <path d="M-10.45 17.4 Q-12.4 15.25 -12.45 9.25 L-11.5 9.55 -11.7 12.05 Q-11.65 15.0 -10.45 17.4" fill="#767779" fill-rule="evenodd" stroke="none"/>
      <path d="M-2.1 8.75 L-0.65 9.75 Q-0.4 10.2 -0.25 14.8 L-0.25 18.35 -2.65 16.25 -1.25 14.45 Q-1.5 11.1 -2.1 8.75" fill="#767779" fill-rule="evenodd" stroke="none"/>
      <path d="M-2.85 16.05 L-1.45 14.3 Q-1.5 12.65 -2.1 8.75 -1.4 10.4 -0.65 14.65 L-1.6 17.25 -2.85 16.05" fill="#aeaeb1" fill-rule="evenodd" stroke="none"/>
    </g>
  </defs>
</svg>
